X: 1678
T: Another Jig Will Do
R: slip jig
M: 9/8
K: Dmajor
ABA A2 G F2 G|ABA AGF G3|ABA A2 G F2 G|A2 d d2 c d3:|
A2 g f2 d e2 c|A2 B =c2 B =c2 B|A2 g f2 d e2 c|A2 d d2 c d3|
A2 g f2 d e2 c|A2 B =c2 B =c2 ^c|d2 A A2 G F2 G|A2 d d2 c d3||

